X: 14
K:C
M:6/8
|: B d2 G3|B d2 G3|A2 B c>BA| c>de A3|B d2 G3|B d2 G3|A2 B c>BA| c>de A3:|

